X:1
T:dr Wägbegleiter  BbEb
T:Adrian Ettlin
%T:Dirigenten-Notiz: Edi Gasser
%C:Unterwalden (CH)
%%partsbox
%P:ABAC
R:Naturjodel
L:1/4
K:Bb
M:3/4
[P:A] F| f>Ff | ecd | B>DB | D>F B/d/ | c>=Bc | 
ecd | B>DB | d2F | f>Ff | ecd | 
B>DB | D>F B/d/ | c>=Bc | edc | (B3 | B2)z || 
L:1/8
M:2/4
[P:B] FF | B>F dc | B2FF | DF fd | c2FF | 
A>F fd | c2FF | e2dc | B2FF | B>F dc | B2FF | DF fd | 
c2FF | A>F fd | c2FF | ef/e/ dc | B2||
L:1/4
M:3/4
K:Eb
[P:C] BcB | G3 | B,CE | D3 | BcB | A3 | B,DB | E3 | 
BcB | G3 | B,EB | A3 | cdc | B3 | cBD | !fermata! E3 | 
B/B/cB | G3 | cBE | D3 | B/B/cB | A3 | cBD | E3 | 
B/B/cB | G3 | B,CE | D3 | B/B/cB | d3 | cBD | !fermata!E2z || 
K:Bb
L:1/8
M:2/4
[P:D]   FF | B>F dc | B2FF | BF fd | c2FF | A>F fd | 
c2EE | ee/f/ dc | B2FF | B>F dc | B2FF | BF fd | 
c2FF | A>F fd | c2FF | ef/e/ dc | !fernata!B2 ||
L:1/4
[M:3/4] "Schlussteil" F | f>Ff | ecd | (B3 | B2) |]
W:
W:Als Dank meinen Eltern gewidmet
%W:Reihenfolge: 
W:
W:UJV-Naturjodelsammlung: Code-Nr: 73-01
W:http://www.naturjodler.ch/code 73.htm  (with AUDIO)
W:Dirigentennotiz, notiert Edi Gasser. Angaben: Emil Wallimann
%October 14, 2018

